packages/icons/raw/imported/GenericIdea.svg

<svg width="32" height="32" viewBox="0 0 32 32" fill="none" xmlns="http://www.w3.org/2000/svg">
<path d="M12.25 25C11.9739 25 11.75 25.2239 11.75 25.5C11.75 25.7761 11.9739 26 12.25 26V25ZM19.75 26C20.0261 26 20.25 25.7761 20.25 25.5C20.25 25.2239 20.0261 25 19.75 25V26ZM19.9374 21.6002L19.466 21.4335H19.466L19.9374 21.6002ZM12.0626 21.6002L11.5912 21.767L12.0626 21.6002ZM18.75 16.7307C18.75 16.4546 18.5261 16.2307 18.25 16.2307C17.9739 16.2307 17.75 16.4546 17.75 16.7307H18.75ZM14.25 16.7307C14.25 16.4546 14.0261 16.2307 13.75 16.2307C13.4739 16.2307 13.25 16.4546 13.25 16.7307H14.25ZM12.25 26H19.75V25H12.25V26ZM9 13.6455C9 9.61667 12.0918 7 16 7V6C11.6239 6 8 8.98359 8 13.6455H9ZM16 7C19.9082 7 23 9.61667 23 13.6455H24C24 8.98359 20.3761 6 16 6V7ZM23 13.6455C23 15.1223 22.3604 16.4763 21.5754 17.7742C21.1735 18.4388 20.7791 19.0185 20.3898 19.6434C20.0171 20.2417 19.6749 20.8431 19.466 21.4335L20.4088 21.767C20.5793 21.2849 20.8721 20.7605 21.2386 20.1722C21.5884 19.6105 22.0373 18.9429 22.4311 18.2917C23.2377 16.9581 24 15.4072 24 13.6455H23ZM12.534 21.4335C12.3251 20.8431 11.9829 20.2417 11.6102 19.6434C11.2209 19.0185 10.8265 18.4388 10.4246 17.7742C9.63956 16.4763 9 15.1223 9 13.6455H8C8 15.4072 8.76233 16.9581 9.5689 18.2917C9.96274 18.9429 10.4116 19.6105 10.7614 20.1722C11.1279 20.7605 11.4207 21.2849 11.5912 21.767L12.534 21.4335ZM18.75 22.0769H13.25V23.0769H18.75V22.0769ZM11.5912 21.767C11.816 22.4024 12.4079 23.0769 13.25 23.0769V22.0769C12.9875 22.0769 12.6776 21.8395 12.534 21.4335L11.5912 21.767ZM19.466 21.4335C19.3224 21.8395 19.0125 22.0769 18.75 22.0769V23.0769C19.5921 23.0769 20.184 22.4024 20.4088 21.767L19.466 21.4335ZM17.75 16.7307C17.75 17.6532 16.9788 18.423 16 18.423V19.423C17.5065 19.423 18.75 18.2298 18.75 16.7307H17.75ZM16 18.423C15.0212 18.423 14.25 17.6532 14.25 16.7307H13.25C13.25 18.2298 14.4935 19.423 16 19.423V18.423Z" fill="black"/>
</svg>

<svg width="32" height="32" fill="none" xmlns="http://www.w3.org/2000/svg"><path d="M12.25 25a.5.5 0 0 0 0 1v-1Zm7.5 1a.5.5 0 0 0 0-1v1Zm.187-4.4-.471-.167.471.167Zm-7.874 0-.472.167.472-.167Zm6.687-4.87a.5.5 0 0 0-1 0h1Zm-4.5 0a.5.5 0 0 0-1 0h1Zm-2 9.27h7.5v-1h-7.5v1ZM9 13.646C9 9.616 12.092 7 16 7V6c-4.376 0-8 2.984-8 7.646h1ZM16 7c3.908 0 7 2.617 7 6.646h1C24 8.983 20.376 6 16 6v1Zm7 6.646c0 1.476-.64 2.83-1.425 4.128-.401.665-.796 1.244-1.185 1.87-.373.598-.715 1.2-.924 1.79l.943.333c.17-.482.463-1.006.83-1.595.35-.562.798-1.23 1.192-1.88.807-1.334 1.569-2.885 1.569-4.647h-1Zm-10.466 7.787c-.209-.59-.551-1.191-.924-1.79-.39-.625-.784-1.204-1.185-1.869C9.64 16.476 9 15.122 9 13.645H8c0 1.762.762 3.313 1.569 4.647.394.65.843 1.318 1.192 1.88.367.588.66 1.113.83 1.595l.943-.334Zm6.216.644h-5.5v1h5.5v-1Zm-7.159-.31c.225.635.817 1.31 1.659 1.31v-1c-.262 0-.572-.238-.716-.644l-.943.334Zm7.875-.334c-.144.407-.454.644-.716.644v1c.842 0 1.434-.675 1.659-1.31l-.943-.334Zm-1.716-4.702c0 .922-.771 1.692-1.75 1.692v1c1.506 0 2.75-1.193 2.75-2.692h-1ZM16 18.423c-.979 0-1.75-.77-1.75-1.692h-1c0 1.499 1.243 2.692 2.75 2.692v-1Z" fill="#000"/></svg>
